X:1
T:Mirar le fresche rose
T:Mirar le fresche rose
T:Piero Benedetti
T:Source : Musische di P.Benedetti---Libro secondo---Venetia---R.Amadino---1613. Editor : André Vierendeels (18/06/15).
T:Notes  : Original clefs : C4, F4 Editorial accidentals above the staff Figures in BC are notated in original print m 24 in BC, "do" notated as "mi" in original print Composer called "Pietro" in this book Editorial suggestion : to sing by two different tenors
T:T 1
T:#
C:Piero Benedetti
%%score 1 2
L:1/8
Q:1/4=120
M:4/4
K:C
V:1 treble-8 nm="Tenor   1 + 2" snm="T"
V:2 bass nm="BC" snm="BC"
V:1
 z B d4 z G | G/F/G/A/ G/A/B/A/ B/c/ d2 ^c | d4 d4 | z c e4 z e | ^c>d B4 B2 | ^G2 GA B3 A | %6
w: Mi- rar le|fre- * * * * * * * * * * sche|ro- se,|cru- del voi|mi ne- ga- te|che nel- le bel- le|
 ^c4 c2 z c | d6 B<A | A4 G4 ||[K:F]"^T 2" _e2 d2 c2 GA | B6 A2 | z2 DE ^F2 FG | A2 A2 z A c2- | %13
w: guan- ce A-|mor ri- *|po- se.|Fors' hai me mi ne-|ga- te|ch'e- sa- lan- do per|gl'oc- chi il cor|
 cA F4 F2 | z d _e4 d2 | z dBA B4- | B3 A A2 A/B/c/B/ | A4 G4 |:[K:C] e3 A A/B/c/d/ e/c/d/e/ | %19
w: _ l'ar- do- re,|ab- bru- ci|e ne con- su-|* mo'il suo splen- * * *|do- re.|Ahi se l'ar- * * * * * * *|
 f4 z BBB | d4 d>c B/A/G/^F/ | G8- | G/A/B TA2 G4 | e2 Ted/c/ .B2 G/4A/4B/4A/4B/<G/ | A4 z Bcd | %25
w: dor d'in- ce- ne-|rir- lo'è _ tan- * * *||* * * * to|fia gran _ _ _ d'an- * * * * *|cor per rav- vi-|
 A6 _B2 | _B4 TA4 | G8 :| %28
w: var li|pian- *|to.|
V:2
 G,,8 | E,8 |"^#" D,8 | A,,4 ^C,4 |"^#""^#" ^C,2 E,4 E,,2 | E,4 E,,4 | A,,4 A,4 | %7
 ^F,2 G,D, B,,^F,, G,,2 |"^4""^#" D,2 D,2 G,,4 ||[K:F]"^b" C,8 |"^#" G,F, _E,2 D,4 |"^#" D,8 | %12
 D,6 E,2 | F,4 B,,2 F,,2 | C,4 G,,4 | G,4- G,F, _E,D, | =B,,4 ^C,4 | %17
"^4""^#""^-natural" D,2 D,2 G,,4 |:[K:C]"^-natural" A,,8 | F,4 E,4- | E,2 B,,2 B,,4- | %21
 B,,4 C,D, E,^F, | .G,4 G,,4 |"^6" C,4 E,2 E,2 |"^#" D,8 |"^#""^4" D,2 ^C,2 D,2 D,2 | %26
"^4""^#" D,4 D,4 | G,,8 :| %28

